X: 28489
T: Munlochy Bridge
R: strathspey
M: 4/4
K: Gmajor
g|e>dB>A B>GG<B|d>ed<B d2g2|e>dB>A B>GG<B|g>ef<d e2g2|
e>dB>A B>GG>B|d>ed<B d2g2|e>dB<A B>GG<B|g>ef<d e3||g|
d>eg<a b>ga<b|d>ed<B d2g2|d>eg<a b>ga<b|a>ge<d e2g2|
d>eg<a b>ga<b|d>ed<B d2g2|e>dB<A B>GG<B|g>ef<d e3||

